launcher/android/assets/skins/day/svg/mapStar0.svg

<svg enable-background="new 0 0 53.27 50.77" height="50.767" viewBox="0 0 53.27 50.77" width="53.2727" xmlns="http://www.w3.org/2000/svg" xmlns:xlink="http://www.w3.org/1999/xlink"><radialGradient id="a" cx="38.9977" cy="47.3256" gradientTransform="matrix(.990935743338 .134336713433 -.134336713433 .990935743338 6.711045169258 -4.809845091935)" gradientUnits="userSpaceOnUse" r="49.811"><stop offset="0" stop-color="#c7c400"/><stop offset=".387213" stop-color="#bead00"/><stop offset=".520927" stop-color="#b69600"/><stop offset=".706977" stop-color="#e88500"/><stop offset=".916279" stop-color="#eeb100"/><stop offset=".986046" stop-color="#f4dd00"/></radialGradient><path d="m43.0105 50.282-6.3301-19.0869 16.2423-11.8562-20.1089.1222-6.2567-19.111246-6.0979 19.162446-20.109163.0448 16.340163 11.721-6.1714 19.1389 16.1967-11.9186z" fill="url(#a)" stroke="#5b3400" stroke-linejoin="round" stroke-width="2"/></svg>

﻿<?xml version="1.0" encoding="utf-8"?>
<!DOCTYPE svg PUBLIC "-//W3C//DTD SVG 1.1//EN" "http://www.w3.org/Graphics/SVG/1.1/DTD/svg11.dtd">
<svg xmlns="http://www.w3.org/2000/svg" xmlns:xlink="http://www.w3.org/1999/xlink" version="1.1" baseProfile="full" width="53.2727" height="50.767" viewBox="0 0 53.27 50.77" enable-background="new 0 0 53.27 50.77" xml:space="preserve">
	<radialGradient id="SVGID_Fill1_" cx="38.9977" cy="47.3256" r="49.811" gradientUnits="userSpaceOnUse" gradientTransform="rotate(7.720267 38.997650 47.325562)">
		<stop offset="0" stop-color="#C7C400" stop-opacity="1"/>
		<stop offset="0.387213" stop-color="#BEAD00" stop-opacity="1"/>
		<stop offset="0.520927" stop-color="#B69600" stop-opacity="1"/>
		<stop offset="0.706977" stop-color="#E88500" stop-opacity="1"/>
		<stop offset="0.916279" stop-color="#EEB100" stop-opacity="1"/>
		<stop offset="0.986046" stop-color="#F4DD00" stop-opacity="1"/>
	</radialGradient>
	<path fill="url(#SVGID_Fill1_)" stroke-width="2" stroke-linejoin="round" stroke="#5B3400" stroke-opacity="1" d="M 43.0105,50.282L 36.6804,31.1951L 52.9227,19.3389L 32.8138,19.4611L 26.5571,0.349854L 20.4592,19.5123L 0.350037,19.5571L 16.6902,31.2781L 10.5188,50.417L 26.7155,38.4984L 43.0105,50.282 Z "/>
</svg>
